assets/img/logos/braze-logo-white.svg

<svg fill="none" height="50" viewBox="0 0 108 50" width="108" xmlns="http://www.w3.org/2000/svg"><path d="m105.535 27.1296c-.523 0-.978.2678-1.413.5317 0 0-.762.4437-1.088.6316-1.816 1.0354-3.7012 1.663-5.719 1.4991-1.1358-.092-2.1951-.3678-3.0973-1.0074-.149-.1079-.29-.2279-.4471-.3558.0766-.036.1168-.056.1571-.076 2.5092-1.0833 4.813-2.5544 6.9883-4.2494 1.357-1.0594 2.541-2.3427 3.399-3.8258 1.003-1.731 1.522-3.5419 1.273-5.4448-.254-1.9148-1.233-3.294-3.053-3.9816-1.317-.4957-2.7229-.4557-4.1567-.1519-2.2918.4877-4.2613 1.659-5.9086 3.378-3.1456 3.2821-4.4707 7.0758-4.1686 11.2853.0282.4038.0926.8035.1369 1.1753-1.9332.9555-3.8424 1.8989-5.7555 2.8343-.0604.032-.1369.032-.1933 0-.3464-.1878-.6646-.4277-1.0271-.5876-1.458-.6516-3.0529-.7316-4.6962-.5757-.3021.028-.6001.072-.9384.116.0765-.1.1248-.1639.1772-.2279 1.8446-2.2906 9.7227-11.893 11.7204-14.3915 0-.008.0041-.016.0081-.02.0604-.0839.1007-.1759.149-.2678.0201-.036.0443-.072.0644-.1119.0323-.072.0605-.144.0846-.2159.0363-.104.0604-.2119.0806-.3198.004-.036.0241-.068.0282-.108 0-.012 0-.028 0-.0399 0-.032 0-.068 0-.1 0-.0919.004-.1839-.0041-.2718-.008-.088-.0322-.1759-.0523-.2679-.004-.02-.0081-.0439-.0121-.0639-.008-.032-.0121-.064-.0201-.096-.3424-1.0434-1.4742-1.615-2.5254-1.2752-.0483.016-4.9943 1.5711-11.2975.6476-1.0955-.1679-2.1145.5917-2.2797 1.679-.1611 1.0874.5961 2.0988 1.6916 2.2627 1.6675.2438 3.2423.3398 4.6923.3398 1.4499 0 2.626-.088 3.7215-.2119-1.6513 2.0108-7.7089 9.2465-9.7308 11.7011-.4028.4917-.8579.9474-1.317 1.3911-.6807.6557-1.4298 1.2153-2.32 1.5351-1.615.5837-3.0408-.0519-3.5282-1.567-.2618-.8236-.2618-1.687-.1128-2.5625.1773-1.0594 2.8838-11.6411 3.1618-12.6365.008-.024.0241-.088.0281-.108 0 0 .0484-.2198.0605-.3558.1127-1.0793-.6767-1.9548-1.7642-1.9548-1.0874 0-1.9131.8395-2.199 1.9548 0 0-.1571.7116-.2377.9835 0 0-.1007-.2159-.1369-.2879-.6767-1.4111-1.74-2.3986-3.347-2.7144-2.1024-.4117-4.1565.016-6.1341 1.1314-1.8205 1.0274-3.1899 2.5065-4.2894 4.2454-.8982 1.4192-1.5507 2.9343-2.183 4.4614-.6485 1.5631-1.2808 3.1341-1.9937 4.6732-.6283 1.3632-1.4741 2.6065-2.618 3.6499-.439.4037-.9183.7435-1.4942.9114-.6727.1959-1.3614-.0639-1.6594-.6396-.141-.2718-.2336-.5876-.2779-.8995-.1611-1.0473.0443-2.1107.2618-3.1661.3705-1.7749.9545-3.6418 1.7117-5.3248.7451-1.659 1.5587-3.2981 2.3562-4.9371.0443-.088.0765-.1719.1087-.2598.0927-.1999.1531-.4158.1773-.6397.1127-1.0753-.6727-1.9508-1.7601-1.9508-.1611 0-1.1922.1719-1.5507.2398-2.4971.4878-3.061.6597-5.538.5157-.1812-.012-.3585-.0319-.5477-.0479.0161-.088.012-.4038.0161-.4478.1087-1.0354-.6485-1.8709-1.6876-1.8709-1.0392 0-1.889.8315-2.0823 1.8709 0 .016-.0765.3158-.1974.8475-.4551 1.9749-.9827 3.9377-1.6916 5.8646-.8176 2.2266-1.9614 4.5053-3.4356 6.4521-.6726.8915-1.6553 1.711-2.5575 2.3906-.0886.064-.1853.12-.3263.2079.0443-.0879.0564-.1159.0685-.1399 1.2687-2.2067 2.0702-4.5014 2.3481-6.8879.0766-.5757.1329-1.1514.1491-1.739.0402-1.5471-.1732-3.0302-.7814-4.3894-1.2003-2.6744-3.2987-4.1775-6.4241-4.2695-1.5466-.048-3.1456.3078-4.5674 1.0754-.0725.04-.145.0719-.2255.1119 0-.032-.004-.04 0-.048 0 0 1.2929-4.80911 1.9413-9.56629.1329-1.095355-.6364-2.0188081-1.7399-2.06677966-.9707-.03997634-1.8125.65960966-1.9373 1.61503966-.8297 6.35624-2.74688 14.17563-4.72445 19.68433-1.05928 2.9503-3.03685 5.4168-5.83606 7.1278-.10875.068-.25777.1479-.42291.2279-.873997.4357-1.288845 1.4511-.946495 2.3626.39471 1.0553 1.623145 1.5431 2.638105 1.0473 1.65939-.8075 3.16573-1.8828 4.47875-3.29.04833-.052.10069-.1039.1611-.1679.0282.0719.04834.1319.06847.1879.49138 1.3592 1.33315 2.5705 2.51325 3.398 1.44994 1.0194 3.15764 1.4271 5.01044 1.4751.0845 0 .157-.012.2376-.016l-.0121.016c1.454.036 2.916-.1199 4.37-.4637 4.4183-1.0474 8.2849-3.454 10.7941-7.3877 1.6755-2.6224 2.8314-5.5247 3.6813-8.423.1288-.4397.2456-.8794.3786-1.3432 4.7486.3278 5.1997-.1879 5.1674-.1159-.2295.4957-.4591 1.0754-.6726 1.5791-1.1962 2.8503-2.2756 5.8565-2.7267 8.8587-.2094 1.3992-.2537 2.7824.0926 4.1136.3907 1.4991 1.2647 2.5665 2.8154 2.9782 1.9211.5117 3.7618.1439 5.4856-1.1553 1.1318-.8555 2.0219-1.9229 2.8113-3.0782.0765-.1119.1571-.2278.2578-.3718.0805.2159.1087.2919.1933.4997.3907.9555.9425 1.843 1.6957 2.5465 1.8406 1.715 4.1081 2.2027 6.7825 1.4152 1.6755-.4917 3.0409-1.5431 4.229-2.8383.1974-.2159.3867-.4398.6001-.6836.0564.2239.1007.4157.1531.5996.3262 1.1314.9143 2.0588 1.9937 2.5945 1.5104.7476 3.1496.9035 4.8815.4237 1.0834-.2998 2.1427-.7355 3.202-1.1313 1.9333-.7236 3.8867-1.1113 5.8803-1.0274.4511.02.8861.1 1.3211.2679-.1087.0639-.1933.1119-.2739.1599-1.321.8235-2.6622 1.619-3.9591 2.4745-1.7964 1.1873-3.3672 2.6225-4.5553 4.4294-1.2405 1.8789-1.9655 3.8737-1.8648 6.0244.0966 2.0428.9747 3.6179 2.6945 4.6333 1.454.8555 3.0932.9434 4.813.4517 2.9442-.8435 5.2883-2.5825 7.0283-5.1489 1.0794-1.5911 1.7721-3.3181 2.187-5.129.4632-2.0228.5518-4.0136.1168-5.9605-.0766-.3438-.1772-.6796-.2739-1.0514 2.0581-1.1753 5.1876-2.4225 5.1876-2.4225.0645.0919.1087.1559.1531.2198.7692 1.1274 1.8285 2.0268 3.0932 2.5905 1.9494.8675 4.0679 1.0314 6.2751.7596 2.4449-.3039 4.7199-1.2033 6.8309-2.6385 0 0 1.18-.8155 1.281-1.7989.117-1.1034-.689-1.9988-1.801-1.9988zm-83.6337-6.4042c-.431 2.9662-1.5305 5.4008-3.6531 7.4396-.6968.6636-1.4781 1.1793-2.3843 1.4511-1.4862.4437-2.7308.1599-3.7417-.8115-.8337-.8035-1.2687-1.8389-1.4016-3.0102-.3666-3.3021.584-6.3603 2.9361-9.1186.588-.6916 1.2808-1.2673 2.0783-1.699 1.9453-1.0474 4.2169-.5757 5.2842 1.0833.572.8915.8297 1.9149.8861 3.0102.0322.6277 0 1.2673-.008 1.6591zm37.6665 6.2283c-.7169.9234-1.5707 1.703-2.6099 2.2586-2.05 1.0954-4.0518.6157-5.0869-1.2272-.5276-.9395-.7451-1.9869-.7652-3.0942-.0041-.3078.008-.6196.0201-.8915.0161-.3238.0443-.6476.1047-.9674.4551-2.5185 1.4218-4.7012 3.1859-6.5841.7894-.8395 1.6997-1.5191 2.7871-1.8869 1.7883-.5996 3.3712-.012 4.2693 1.5591.5236.9234.7653 1.9548.7733 3.0502.0161 2.8103-.8337 5.4208-2.6784 7.7874zm17.9996 17.7135c-.2014.2039-.4189.3997-.6525.5676-2.6461 1.9229-5.0466.7196-4.954-1.7469.0443-1.1154.4954-2.1188 1.1479-3.0742.9344-1.3712 2.1548-2.4625 3.5081-3.422 1.4016-.9954 4.4143-2.7024 4.4586-2.7224.1933.6117.286 1.2393.2698 1.8869-.0684 3.2301-1.3371 6.0684-3.7739 8.511zm14.8781-19.5604c-.0604.0279-.1168.0519-.2215.0999-.0121-.4717-.0564-.9234-.0362-1.3752.1087-2.6184 1.023-5.037 2.7871-7.2037.2135-.2599.4551-.4997.7129-.7156 1.4701-1.2073 3.1134-2.0868 4.5872-1.5791.87.2999 1.37 1.1234 1.317 2.1228-.056 1.0674-.543 1.9948-1.212 2.8623-.9304 1.2033-2.0904 2.1707-3.3188 3.0542-1.4661 1.0514-3.0086 1.9508-4.6197 2.7344z" fill="#fff"/></svg>

<svg width="108" height="50" viewBox="0 0 108 50" fill="none" xmlns="http://www.w3.org/2000/svg">
<path d="M105.535 27.1296C105.012 27.1296 104.557 27.3974 104.122 27.6613C104.122 27.6613 103.36 28.105 103.034 28.2929C101.218 29.3283 99.3328 29.9559 97.315 29.792C96.1792 29.7 95.1199 29.4242 94.2177 28.7846C94.0687 28.6767 93.9277 28.5567 93.7706 28.4288C93.8472 28.3928 93.8874 28.3728 93.9277 28.3528C96.4369 27.2695 98.7407 25.7984 100.916 24.1034C102.273 23.044 103.457 21.7607 104.315 20.2776C105.318 18.5466 105.837 16.7357 105.588 14.8328C105.334 12.918 104.355 11.5388 102.535 10.8512C101.218 10.3555 99.8121 10.3955 98.3783 10.6993C96.0865 11.187 94.117 12.3583 92.4697 14.0773C89.3241 17.3594 87.999 21.1531 88.3011 25.3626C88.3293 25.7664 88.3937 26.1661 88.438 26.5379C86.5048 27.4934 84.5956 28.4368 82.6825 29.3722C82.6221 29.4042 82.5456 29.4042 82.4892 29.3722C82.1428 29.1844 81.8246 28.9445 81.4621 28.7846C80.0041 28.133 78.4092 28.053 76.7659 28.2089C76.4638 28.2369 76.1658 28.2809 75.8275 28.3249C75.904 28.2249 75.9523 28.161 76.0047 28.097C77.8493 25.8064 85.7274 16.204 87.7251 13.7055C87.7251 13.6975 87.7292 13.6895 87.7332 13.6855C87.7936 13.6016 87.8339 13.5096 87.8822 13.4177C87.9023 13.3817 87.9265 13.3457 87.9466 13.3058C87.9789 13.2338 88.0071 13.1618 88.0312 13.0899C88.0675 12.9859 88.0916 12.878 88.1118 12.7701C88.1158 12.7341 88.1359 12.7021 88.14 12.6621C88.14 12.6501 88.14 12.6341 88.14 12.6222C88.14 12.5902 88.14 12.5542 88.14 12.5222C88.14 12.4303 88.144 12.3383 88.1359 12.2504C88.1279 12.1624 88.1037 12.0745 88.0836 11.9825C88.0796 11.9625 88.0755 11.9386 88.0715 11.9186C88.0635 11.8866 88.0594 11.8546 88.0514 11.8226C87.709 10.7792 86.5772 10.2076 85.526 10.5474C85.4777 10.5634 80.5317 12.1185 74.2285 11.195C73.133 11.0271 72.114 11.7867 71.9488 12.874C71.7877 13.9614 72.5449 14.9728 73.6404 15.1367C75.3079 15.3805 76.8827 15.4765 78.3327 15.4765C79.7826 15.4765 80.9587 15.3885 82.0542 15.2646C80.4029 17.2754 74.3453 24.5111 72.3234 26.9657C71.9206 27.4574 71.4655 27.9131 71.0064 28.3568C70.3257 29.0125 69.5766 29.5721 68.6864 29.8919C67.0714 30.4756 65.6456 29.84 65.1582 28.3249C64.8964 27.5013 64.8964 26.6379 65.0454 25.7624C65.2227 24.703 67.9292 14.1213 68.2072 13.1259C68.2152 13.1019 68.2313 13.0379 68.2353 13.0179C68.2353 13.0179 68.2837 12.7981 68.2958 12.6621C68.4085 11.5828 67.6191 10.7073 66.5316 10.7073C65.4442 10.7073 64.6185 11.5468 64.3326 12.6621C64.3326 12.6621 64.1755 13.3737 64.0949 13.6456C64.0949 13.6456 63.9942 13.4297 63.958 13.3577C63.2813 11.9466 62.218 10.9591 60.611 10.6433C58.5086 10.2316 56.4545 10.6593 54.4769 11.7747C52.6564 12.8021 51.287 14.2812 50.1875 16.0201C49.2893 17.4393 48.6368 18.9544 48.0045 20.4815C47.356 22.0446 46.7237 23.6156 46.0108 25.1547C45.3825 26.5179 44.5367 27.7612 43.3928 28.8046C42.9538 29.2083 42.4745 29.5481 41.8986 29.716C41.2259 29.9119 40.5372 29.6521 40.2392 29.0764C40.0982 28.8046 40.0056 28.4888 39.9613 28.1769C39.8002 27.1296 40.0056 26.0662 40.2231 25.0108C40.5936 23.2359 41.1776 21.369 41.9348 19.686C42.6799 18.027 43.4935 16.3879 44.291 14.7489C44.3353 14.6609 44.3675 14.577 44.3997 14.4891C44.4924 14.2892 44.5528 14.0733 44.577 13.8494C44.6897 12.7741 43.9043 11.8986 42.8169 11.8986C42.6558 11.8986 41.6247 12.0705 41.2662 12.1384C38.7691 12.6262 38.2052 12.7981 35.7282 12.6541C35.547 12.6421 35.3697 12.6222 35.1805 12.6062C35.1966 12.5182 35.1925 12.2024 35.1966 12.1584C35.3053 11.123 34.5481 10.2875 33.509 10.2875C32.4698 10.2875 31.62 11.119 31.4267 12.1584C31.4267 12.1744 31.3502 12.4742 31.2293 13.0059C30.7742 14.9808 30.2466 16.9436 29.5377 18.8705C28.7201 21.0971 27.5763 23.3758 26.1021 25.3226C25.4295 26.2141 24.4468 27.0336 23.5446 27.7132C23.456 27.7772 23.3593 27.8332 23.2183 27.9211C23.2626 27.8332 23.2747 27.8052 23.2868 27.7812C24.5555 25.5745 25.357 23.2798 25.6349 20.8933C25.7115 20.3176 25.7678 19.7419 25.784 19.1543C25.8242 17.6072 25.6108 16.1241 25.0026 14.7649C23.8023 12.0905 21.7039 10.5874 18.5785 10.4954C17.0319 10.4474 15.4329 10.8032 14.0111 11.5708C13.9386 11.6108 13.8661 11.6427 13.7856 11.6827C13.7856 11.6507 13.7816 11.6427 13.7856 11.6347C13.7856 11.6347 15.0785 6.82559 15.7269 2.06841C15.8598 0.973055 15.0905 0.0496019 13.987 0.00163034C13.0163 -0.038346 12.1745 0.66124 12.0497 1.61667C11.22 7.97291 9.30282 15.7923 7.32525 21.301C6.26597 24.2513 4.2884 26.7178 1.48919 28.4288C1.38044 28.4968 1.23142 28.5767 1.06628 28.6567C0.192283 29.0924 -0.222565 30.1078 0.119785 31.0193C0.514495 32.0746 1.74293 32.5624 2.75789 32.0666C4.41728 31.2591 5.92362 30.1838 7.23664 28.7766C7.28497 28.7246 7.33733 28.6727 7.39774 28.6087C7.42594 28.6806 7.44608 28.7406 7.46621 28.7966C7.95759 30.1558 8.79936 31.3671 9.97946 32.1946C11.4294 33.214 13.1371 33.6217 14.9899 33.6697C15.0744 33.6697 15.1469 33.6577 15.2275 33.6537L15.2154 33.6697C16.6694 33.7057 18.1314 33.5498 19.5854 33.206C24.0037 32.1586 27.8703 29.752 30.3795 25.8183C32.055 23.1959 33.2109 20.2936 34.0608 17.3953C34.1896 16.9556 34.3064 16.5159 34.4394 16.0521C39.188 16.3799 39.6391 15.8642 39.6068 15.9362C39.3773 16.4319 39.1477 17.0116 38.9342 17.5153C37.738 20.3656 36.6586 23.3718 36.2075 26.374C35.9981 27.7732 35.9538 29.1564 36.3001 30.4876C36.6908 31.9867 37.5648 33.0541 39.1155 33.4658C41.0366 33.9775 42.8773 33.6097 44.6011 32.3105C45.7329 31.455 46.623 30.3876 47.4124 29.2323C47.4889 29.1204 47.5695 29.0045 47.6702 28.8605C47.7507 29.0764 47.7789 29.1524 47.8635 29.3602C48.2542 30.3157 48.806 31.2032 49.5592 31.9067C51.3998 33.6217 53.6673 34.1094 56.3417 33.3219C58.0172 32.8302 59.3826 31.7788 60.5707 30.4836C60.7681 30.2677 60.9574 30.0438 61.1708 29.8C61.2272 30.0239 61.2715 30.2157 61.3239 30.3996C61.6501 31.531 62.2382 32.4584 63.3176 32.9941C64.828 33.7417 66.4672 33.8976 68.1991 33.4178C69.2825 33.118 70.3418 32.6823 71.4011 32.2865C73.3344 31.5629 75.2878 31.1752 77.2814 31.2591C77.7325 31.2791 78.1675 31.3591 78.6025 31.527C78.4938 31.5909 78.4092 31.6389 78.3286 31.6869C77.0076 32.5104 75.6664 33.3059 74.3695 34.1614C72.5731 35.3487 71.0023 36.7839 69.8142 38.5908C68.5737 40.4697 67.8487 42.4645 67.9494 44.6152C68.046 46.658 68.9241 48.2331 70.6439 49.2485C72.0979 50.104 73.7371 50.1919 75.4569 49.7002C78.4011 48.8567 80.7452 47.1177 82.4852 44.5513C83.5646 42.9602 84.2573 41.2332 84.6722 39.4223C85.1354 37.3995 85.224 35.4087 84.789 33.4618C84.7124 33.118 84.6118 32.7822 84.5151 32.4104C86.5732 31.2351 89.7027 29.9879 89.7027 29.9879C89.7672 30.0798 89.8114 30.1438 89.8558 30.2077C90.625 31.3351 91.6843 32.2345 92.949 32.7982C94.8984 33.6657 97.0169 33.8296 99.2241 33.5578C101.669 33.2539 103.944 32.3545 106.055 30.9193C106.055 30.9193 107.235 30.1038 107.336 29.1204C107.453 28.017 106.647 27.1216 105.535 27.1216V27.1296ZM21.9013 20.7254C21.4703 23.6916 20.3708 26.1262 18.2482 28.165C17.5514 28.8286 16.7701 29.3443 15.8639 29.6161C14.3777 30.0598 13.1331 29.776 12.1222 28.8046C11.2885 28.0011 10.8535 26.9657 10.7206 25.7944C10.354 22.4923 11.3046 19.4341 13.6567 16.6758C14.2447 15.9842 14.9375 15.4085 15.735 14.9768C17.6803 13.9294 19.9519 14.4011 21.0192 16.0601C21.5912 16.9516 21.8489 17.975 21.9053 19.0703C21.9375 19.698 21.9053 20.3376 21.8973 20.7294L21.9013 20.7254ZM59.5678 26.9537C58.8509 27.8771 57.9971 28.6567 56.9579 29.2123C54.9079 30.3077 52.9061 29.828 51.871 27.9851C51.3434 27.0456 51.1259 25.9982 51.1058 24.8909C51.1017 24.5831 51.1138 24.2713 51.1259 23.9994C51.142 23.6756 51.1702 23.3518 51.2306 23.032C51.6857 20.5135 52.6524 18.3308 54.4165 16.4479C55.2059 15.6084 56.1162 14.9288 57.2036 14.561C58.9919 13.9614 60.5748 14.549 61.4729 16.1201C61.9965 17.0435 62.2382 18.0749 62.2462 19.1703C62.2623 21.9806 61.4125 24.5911 59.5678 26.9577V26.9537ZM77.5674 44.6672C77.366 44.8711 77.1485 45.0669 76.9149 45.2348C74.2688 47.1577 71.8683 45.9544 71.9609 43.4879C72.0052 42.3725 72.4563 41.3691 73.1088 40.4137C74.0432 39.0425 75.2636 37.9512 76.6169 36.9917C78.0185 35.9963 81.0312 34.2893 81.0755 34.2693C81.2688 34.881 81.3615 35.5086 81.3453 36.1562C81.2769 39.3863 80.0082 42.2246 77.5714 44.6672H77.5674ZM92.4455 25.1068C92.3851 25.1347 92.3287 25.1587 92.224 25.2067C92.2119 24.735 92.1676 24.2833 92.1878 23.8315C92.2965 21.2131 93.2108 18.7945 94.9749 16.6278C95.1884 16.3679 95.43 16.1281 95.6878 15.9122C97.1579 14.7049 98.8012 13.8254 100.275 14.3331C101.145 14.633 101.645 15.4565 101.592 16.4559C101.536 17.5233 101.049 18.4507 100.38 19.3182C99.4496 20.5215 98.2896 21.4889 97.0612 22.3724C95.5951 23.4238 94.0526 24.3232 92.4415 25.1068H92.4455Z" fill="white"/>
</svg>
